X:754
T:A Trip to Sweden
C:Colin Hume, 1990
L:1/4
M:2/2
S:Colin Hume's website,  colinhume.com  - chords can also be printed below the stave.
Q:1/2=112
H:For the band Wild Thyme and the Apertins Herrgard Dancers
K:Em
P:A
|: "B7/D#"B | "Em"eB "B7/D#"~BA/B/ | "Em"GE "/"E3/F/ | "G"GG "D/F#"~AG/A/ |\
"G"BB "Em"e3/B/ | "Am"AA/B/ "B7"A/G/F | "Em"GE "/"E :|
P:B
|: z/B/ | "G"dd "/"g3/d/ | "C"ee "G"dB/c/ | "G"dG "Em"~GF/G/ |\
"D"A/G/F/E/ "/"DD | "C"E/F/G/E/ "D7"F/G/A/F/ | "G"GG "/"G :|
P:C
|: B | "Am"c3/B/ "D7"Ae | "G"d/e/d/c/ "/"BA/B/ | "Am"cc/d/ "D7"ee/f/ | "G"gd "/"~BG | "Am"AB/c/ "B7"B/A/G/F/ | "Em"GE "/"E :|

